X: 18
T: Tick Dance Song (g)
C: Anon.
%%abc-version 2.0
%%abcx-abcm2ps-target-version 5.9.1 (29 Sep 2008)
%%abc-creator hum2abc beta
%%abcx-conversion-date 2020/08/10 20:56:09
%%abc-copyright Electronic Copyright 2000 David Huron
%%abc-edited-by David Huron
%%abcx-initial-encoding-date August 27, 2000
%%humdrum-veritas 2339187843
%%humdrum-veritas-data 2292887324
%%linebreak <none>
%%barnumbers 0
L: 1/8
M: 2/4
Q: 1/4=84
K: Ab clef=bass
A, =A, _A, F,[M:3/4] | 
E, E, E, E,B,2[M:3/8] | 
B,2F,[M:2/4] | 
A, A,!fermata!F,2 | 
E, E, E, E, | 
E, E, E, z | 
E,2E, B,, | 
E, E,F,2 | 
F, A, A, F, | 
E, E, E, E, | 
E, E, E, z | 
=E,2_E, B,, | 
E, E, F, z | 
F, F, F, E, | 
E, E, E, E, | 
E, E, E, z | 
E,2E, B,, | 
E, E,E,2 | 
E, B, B, A,[M:3/4] | 
F, E, E, E,B,2[M:3/8] | 
B,2F,[M:2/4] | 
A, A,!fermata!F,2 | 
E, E, E, E, | 
E, E, E, z | 
E,2E, B,, | 
E, E,F,2 | 
F, A, A, F, | 
E, E, E, E, | 
E, E, E, z | 
E,2E, B,, | 
E, E,E,2 | 
E, B, B, A,[M:3/4] | 
F, E, E, E,B,2[M:3/8] | 
B,2F,[M:2/4] | 
A, A,!fermata!F,2 | 
E, E, E, E, | 
E, E, E, z | 
E,2E, B,, | 
E, E,F,2 | 
F, A, A, F, | 
E, E, E, E, | 
E, E, E, z | 
E,2E, B,, | 
E, E,E,2 |]  


